apps/48/office-calendar.svg

<?xml version="1.0" encoding="UTF-8" standalone="no"?>
<svg
   xmlns:dc="http://purl.org/dc/elements/1.1/"
   xmlns:cc="http://creativecommons.org/ns#"
   xmlns:rdf="http://www.w3.org/1999/02/22-rdf-syntax-ns#"
   xmlns:svg="http://www.w3.org/2000/svg"
   xmlns="http://www.w3.org/2000/svg"
   xmlns:xlink="http://www.w3.org/1999/xlink"
   version="1.1"
   width="48"
   height="48"
   id="svg3111">
  <defs
     id="defs3113">
    <linearGradient
       id="linearGradient3924-1">
      <stop
         id="stop3926-3"
         style="stop-color:#ffffff;stop-opacity:1"
         offset="0" />
      <stop
         id="stop3928-91"
         style="stop-color:#ffffff;stop-opacity:0.23529412"
         offset="0.06316455" />
      <stop
         id="stop3930-6"
         style="stop-color:#ffffff;stop-opacity:0.15686275"
         offset="0.95056331" />
      <stop
         id="stop3932-6"
         style="stop-color:#ffffff;stop-opacity:0.39215687"
         offset="1" />
    </linearGradient>
    <radialGradient
       cx="4.9929786"
       cy="43.5"
       r="2.5"
       fx="4.9929786"
       fy="43.5"
       id="radialGradient3013"
       xlink:href="#linearGradient3688-166-749"
       gradientUnits="userSpaceOnUse"
       gradientTransform="matrix(2.003784,0,0,1.4,27.98813,-17.4)" />
    <linearGradient
       id="linearGradient3688-166-749">
      <stop
         id="stop2883"
         style="stop-color:#181818;stop-opacity:1"
         offset="0" />
      <stop
         id="stop2885"
         style="stop-color:#181818;stop-opacity:0"
         offset="1" />
    </linearGradient>
    <radialGradient
       cx="4.9929786"
       cy="43.5"
       r="2.5"
       fx="4.9929786"
       fy="43.5"
       id="radialGradient3015"
       xlink:href="#linearGradient3688-464-309"
       gradientUnits="userSpaceOnUse"
       gradientTransform="matrix(2.003784,0,0,1.4,-20.01187,-104.4)" />
    <linearGradient
       id="linearGradient3688-464-309">
      <stop
         id="stop2889"
         style="stop-color:#181818;stop-opacity:1"
         offset="0" />
      <stop
         id="stop2891"
         style="stop-color:#181818;stop-opacity:0"
         offset="1" />
    </linearGradient>
    <linearGradient
       id="linearGradient3702-501-757">
      <stop
         id="stop2895"
         style="stop-color:#181818;stop-opacity:0"
         offset="0" />
      <stop
         id="stop2897"
         style="stop-color:#181818;stop-opacity:1"
         offset="0.5" />
      <stop
         id="stop2899"
         style="stop-color:#181818;stop-opacity:0"
         offset="1" />
    </linearGradient>
    <linearGradient
       x1="25.058096"
       y1="47.027729"
       x2="25.058096"
       y2="39.999443"
       id="linearGradient3109"
       xlink:href="#linearGradient3702-501-757"
       gradientUnits="userSpaceOnUse" />
    <linearGradient
       id="linearGradient3242-7-3-8-0-4-58-06">
      <stop
         id="stop3244-5-8-5-6-4-3-8"
         style="stop-color:#cdf87e;stop-opacity:1"
         offset="0" />
      <stop
         id="stop3246-9-5-1-5-3-0-7"
         style="stop-color:#a2e34f;stop-opacity:1"
         offset="0.26238" />
      <stop
         id="stop3248-7-2-0-7-5-35-9"
         style="stop-color:#68b723;stop-opacity:1"
         offset="0.66093999" />
      <stop
         id="stop3250-8-2-8-5-6-40-4"
         style="stop-color:#1d7e0d;stop-opacity:1"
         offset="1" />
    </linearGradient>
    <linearGradient
       id="linearGradient3510-2">
      <stop
         id="stop3512-7"
         style="stop-color:#000000;stop-opacity:1"
         offset="0" />
      <stop
         id="stop3514-6"
         style="stop-color:#000000;stop-opacity:0"
         offset="1" />
    </linearGradient>
    <linearGradient
       x1="23.99999"
       y1="4.999989"
       x2="23.99999"
       y2="43"
       id="linearGradient3991"
       xlink:href="#linearGradient3924-1"
       gradientUnits="userSpaceOnUse"
       gradientTransform="translate(4e-6,1.0000062)" />
    <linearGradient
       x1="24.169817"
       y1="-12.24244"
       x2="24.169817"
       y2="48.933952"
       id="linearGradient4036"
       xlink:href="#linearGradient3242-7-3-8-0-4-58-06"
       gradientUnits="userSpaceOnUse"
       gradientTransform="matrix(0.70909089,0,0,0.70909089,1.309104,2.3090923)" />
    <linearGradient
       x1="23.954144"
       y1="15.999304"
       x2="23.954144"
       y2="19.963179"
       id="linearGradient4043"
       xlink:href="#linearGradient3510-2"
       gradientUnits="userSpaceOnUse"
       gradientTransform="matrix(0.99999997,0,0,0.37500001,1.801756e-6,9.0000009)" />
    <linearGradient
       x1="25.132275"
       y1="15.499894"
       x2="25.132275"
       y2="48.395687"
       id="linearGradient4046-7"
       xlink:href="#linearGradient4658-9"
       gradientUnits="userSpaceOnUse"
       gradientTransform="matrix(0.89153988,0,0,0.8548797,2.6030444,1.6665388)" />
    <linearGradient
       id="linearGradient4658-9">
      <stop
         id="stop4660-7"
         style="stop-color:#fafafa;stop-opacity:1"
         offset="0" />
      <stop
         id="stop4662-3"
         style="stop-color:#e2e1de;stop-opacity:1"
         offset="1" />
    </linearGradient>
    <linearGradient
       id="linearGradient3924-1-3">
      <stop
         id="stop3926-3-1"
         style="stop-color:#ffffff;stop-opacity:1"
         offset="0" />
      <stop
         id="stop3928-91-8"
         style="stop-color:#ffffff;stop-opacity:0.23529412"
         offset="0.06316455" />
      <stop
         id="stop3930-6-9"
         style="stop-color:#ffffff;stop-opacity:0.15686275"
         offset="0.95056331" />
      <stop
         id="stop3932-6-2"
         style="stop-color:#ffffff;stop-opacity:0.39215687"
         offset="1" />
    </linearGradient>
    <linearGradient
       x1="23.99999"
       y1="4.999989"
       x2="23.99999"
       y2="43"
       id="linearGradient4100"
       xlink:href="#linearGradient3924-1-3"
       gradientUnits="userSpaceOnUse"
       gradientTransform="translate(4e-6,1.000006)" />
  </defs>
  <metadata
     id="metadata3116">
    <rdf:RDF>
      <cc:Work
         rdf:about="">
        <dc:format>image/svg+xml</dc:format>
        <dc:type
           rdf:resource="http://purl.org/dc/dcmitype/StillImage" />
        <dc:title />
      </cc:Work>
    </rdf:RDF>
  </metadata>
  <g
     transform="matrix(1.1578952,0,0,0.6428571,-3.789476,16.035716)"
     id="g3712-5"
     style="opacity:0.35">
    <rect
       width="5"
       height="7"
       x="38"
       y="40"
       id="rect2801-3"
       style="fill:url(#radialGradient3013);fill-opacity:1;stroke:none" />
    <rect
       width="5"
       height="7"
       x="-10"
       y="-47"
       transform="scale(-1,-1)"
       id="rect3696-6"
       style="fill:url(#radialGradient3015);fill-opacity:1;stroke:none" />
    <rect
       width="28"
       height="7.0000005"
       x="10"
       y="40"
       id="rect3700-4"
       style="fill:url(#linearGradient3109);fill-opacity:1;stroke:none" />
  </g>
  <rect
     width="38"
     height="38"
     rx="2"
     ry="2"
     x="5"
     y="6"
     id="rect5505-21"
     style="color:#000000;fill:url(#linearGradient4046-7);fill-opacity:1;fill-rule:nonzero;stroke:none;stroke-width:0.99999994;marker:none;visibility:visible;display:inline;overflow:visible;enable-background:accumulate" />
  <rect
     width="37"
     height="37"
     rx="1"
     ry="1"
     x="5.5000124"
     y="6.4999952"
     id="rect6741"
     style="fill:none;stroke:url(#linearGradient3991);stroke-width:1;stroke-linecap:round;stroke-linejoin:round;stroke-miterlimit:4;stroke-opacity:1;stroke-dasharray:none;stroke-dashoffset:0" />
  <rect
     width="40"
     height="1.5"
     rx="0"
     ry="0"
     x="4"
     y="15"
     id="rect3508"
     style="opacity:0.15;fill:url(#linearGradient4043);fill-opacity:1;fill-rule:nonzero;stroke:none;stroke-width:1;marker:none;visibility:visible;display:inline;overflow:visible;enable-background:accumulate" />
  <path
     d="m 4.500013,15 0,27.372728 c 0,1.178509 0.948764,2.127272 2.127273,2.127272 l 34.745453,0 c 1.17851,0 2.127273,-0.948763 2.127273,-2.127272 l 0,-27.372728"
     id="rect4567"
     style="opacity:0.3;fill:none;stroke:#000000;stroke-width:0.99999994;stroke-miterlimit:4;stroke-dasharray:none" />
  <path
     d="m 6.627285,5.5000013 c -1.178509,0 -2.127272,0.948764 -2.127272,2.127273 l 0,6.8727257 38.999999,0 0,-6.8727257 c 0,-1.178509 -0.948764,-2.127273 -2.127273,-2.127273 z"
     id="rect5505-21-3-8-5-2-6-1"
     style="color:#000000;fill:url(#linearGradient4036);fill-opacity:1;fill-rule:nonzero;stroke:none;stroke-width:0.99999994;marker:none;visibility:visible;display:inline;overflow:visible;enable-background:accumulate" />
  <path
     d="m 6.627286,5.5000013 c -1.178509,0 -2.127273,0.948764 -2.127273,2.127273 l 0,6.8727257 38.999999,0 0,-6.8727257 c 0,-1.178509 -0.948763,-2.127273 -2.127273,-2.127273 z"
     id="rect5505-21-3-8-9-1-1-7-8"
     style="opacity:0.4;color:#000000;fill:none;stroke:#126400;stroke-width:0.99999994;stroke-linecap:round;stroke-linejoin:miter;stroke-miterlimit:4;stroke-opacity:1;stroke-dasharray:none;stroke-dashoffset:0;marker:none;visibility:visible;display:inline;overflow:visible;enable-background:accumulate" />
  <path
     d="m 38.510676,34.500001 -29.010676,0 z M 38.48932,20.529673 9.5,20.50739 l 0,18.992605 29.010675,0 z m 0.02136,9.970328 -29.010676,0 m 29.010676,-5 -29.010676,0 M 15.519645,20.549493 15.480355,39.5 M 20.5038,20.631983 20.4962,39.5 M 26.49595,20.56599 26.50405,39.5 m 5.9813,-19 0.0293,19"
     id="rect4188-6-4-0"
     style="opacity:0.2;color:#000000;fill:none;stroke:#ffffff;stroke-width:0.99999994;stroke-linecap:butt;stroke-linejoin:miter;stroke-miterlimit:4;stroke-opacity:1;stroke-dasharray:none;stroke-dashoffset:0;marker:none;visibility:visible;display:inline;overflow:visible;enable-background:accumulate" />
  <path
     d="m 11.464567,11.472441 a 1.1023622,1.0472441 0 1 1 -2.2047246,0 1.1023622,1.0472441 0 1 1 2.2047246,0 z"
     transform="matrix(0.9071429,0,0,0.95488721,28.6,0.04511312)"
     id="path4682-6-3"
     style="opacity:0.3;color:#000000;fill:#ffffff;fill-opacity:1;fill-rule:nonzero;stroke:none;stroke-width:1.07444978;marker:none;visibility:visible;display:inline;overflow:visible;enable-background:accumulate" />
  <path
     d="m 11.464567,11.472441 a 1.1023622,1.0472441 0 1 1 -2.2047246,0 1.1023622,1.0472441 0 1 1 2.2047246,0 z"
     transform="matrix(0.9071429,0,0,0.95488721,28.6,-0.95488626)"
     id="path4682-6-1-5"
     style="opacity:0.4;color:#000000;fill:#126400;fill-opacity:1;fill-rule:nonzero;stroke:none;stroke-width:1.07444978;marker:none;visibility:visible;display:inline;overflow:visible;enable-background:accumulate" />
  <path
     d="m 6.5,6.5 c -0.554,0 -1,0.446 -1,1 l 0,6 37,0 0,-6 c 0,-0.554 -0.446,-1 -1,-1 z"
     id="rect6741-1"
     style="opacity:0.5;fill:none;stroke:url(#linearGradient4100);stroke-width:1;stroke-linecap:round;stroke-linejoin:round;stroke-miterlimit:4;stroke-opacity:1;stroke-dasharray:none;stroke-dashoffset:0" />
  <path
     d="M 38.510676,33.5 9.5,33.5 z M 38.48932,19.529672 9.5,19.507389 l 0,18.992605 29.010675,0 z M 38.51068,29.5 9.500004,29.5 m 29.010676,-5 -29.010676,0 m 6.019641,-4.950508 -0.03929,18.950507 M 20.5038,19.631982 20.4962,38.499999 m 5.99975,-18.93401 0.0081,18.93401 m 5.9813,-19 0.0293,19"
     id="rect4188-6-4-0-8"
     style="opacity:0.25;fill:none;stroke:#5e553c;stroke-width:1;stroke-miterlimit:4;stroke-opacity:1;stroke-dasharray:none" />
  <path
     d="m 11.464567,11.472441 a 1.1023622,1.0472441 0 1 1 -2.2047246,0 1.1023622,1.0472441 0 1 1 2.2047246,0 z"
     transform="matrix(0.9071429,0,0,0.95488721,0.6,0.04511336)"
     id="path4682-6-3-8"
     style="opacity:0.3;color:#000000;fill:#ffffff;fill-opacity:1;fill-rule:nonzero;stroke:none;stroke-width:1.07444978;marker:none;visibility:visible;display:inline;overflow:visible;enable-background:accumulate" />
  <path
     d="m 11.464567,11.472441 a 1.1023622,1.0472441 0 1 1 -2.2047246,0 1.1023622,1.0472441 0 1 1 2.2047246,0 z"
     transform="matrix(0.9071429,0,0,0.95488721,0.6,-0.95488594)"
     id="path4682-6-1-5-0"
     style="opacity:0.4;color:#000000;fill:#126400;fill-opacity:1;fill-rule:nonzero;stroke:none;stroke-width:1.07444978;marker:none;visibility:visible;display:inline;overflow:visible;enable-background:accumulate" />
</svg>

<svg xmlns="http://www.w3.org/2000/svg" xmlns:xlink="http://www.w3.org/1999/xlink" viewBox="0 0 48 48"><defs><linearGradient id="d"><stop offset="0" stop-color="#fff"/><stop offset=".063" stop-color="#fff" stop-opacity=".235"/><stop offset=".951" stop-color="#fff" stop-opacity=".157"/><stop offset="1" stop-color="#fff" stop-opacity=".392"/></linearGradient><radialGradient cx="4.993" cy="43.5" r="2.5" fx="4.993" fy="43.5" id="i" xlink:href="#a" gradientUnits="userSpaceOnUse" gradientTransform="matrix(2.00378 0 0 1.4 27.988 -17.4)"/><linearGradient id="a"><stop offset="0" stop-color="#181818"/><stop offset="1" stop-color="#181818" stop-opacity="0"/></linearGradient><radialGradient cx="4.993" cy="43.5" r="2.5" fx="4.993" fy="43.5" id="j" xlink:href="#b" gradientUnits="userSpaceOnUse" gradientTransform="matrix(2.00378 0 0 1.4 -20.012 -104.4)"/><linearGradient id="b"><stop offset="0" stop-color="#181818"/><stop offset="1" stop-color="#181818" stop-opacity="0"/></linearGradient><linearGradient id="c"><stop offset="0" stop-color="#181818" stop-opacity="0"/><stop offset=".5" stop-color="#181818"/><stop offset="1" stop-color="#181818" stop-opacity="0"/></linearGradient><linearGradient x1="25.058" y1="47.028" x2="25.058" y2="39.999" id="k" xlink:href="#c" gradientUnits="userSpaceOnUse"/><linearGradient id="e"><stop offset="0" stop-color="#cdf87e"/><stop offset=".262" stop-color="#a2e34f"/><stop offset=".661" stop-color="#68b723"/><stop offset="1" stop-color="#1d7e0d"/></linearGradient><linearGradient id="f"><stop offset="0"/><stop offset="1" stop-opacity="0"/></linearGradient><linearGradient x1="24" y1="5" x2="24" y2="43" id="m" xlink:href="#d" gradientUnits="userSpaceOnUse" gradientTransform="translate(0 1)"/><linearGradient x1="24.17" y1="-12.242" x2="24.17" y2="48.934" id="o" xlink:href="#e" gradientUnits="userSpaceOnUse" gradientTransform="translate(1.31 2.31) scale(.7091)"/><linearGradient x1="23.954" y1="15.999" x2="23.954" y2="19.963" id="n" xlink:href="#f" gradientUnits="userSpaceOnUse" gradientTransform="matrix(1 0 0 .375 0 9)"/><linearGradient x1="25.132" y1="15.5" x2="25.132" y2="48.396" id="l" xlink:href="#g" gradientUnits="userSpaceOnUse" gradientTransform="matrix(.89154 0 0 .85488 2.603 1.667)"/><linearGradient id="g"><stop offset="0" stop-color="#fafafa"/><stop offset="1" stop-color="#e2e1de"/></linearGradient><linearGradient id="h"><stop offset="0" stop-color="#fff"/><stop offset=".063" stop-color="#fff" stop-opacity=".235"/><stop offset=".951" stop-color="#fff" stop-opacity=".157"/><stop offset="1" stop-color="#fff" stop-opacity=".392"/></linearGradient><linearGradient x1="24" y1="5" x2="24" y2="43" id="p" xlink:href="#h" gradientUnits="userSpaceOnUse" gradientTransform="translate(0 1)"/></defs><g opacity=".35"><path fill="url(#i)" d="M38 40h5v7h-5z" transform="matrix(1.1579 0 0 .64286 -3.79 16.036)"/><path transform="matrix(-1.1579 0 0 -.64286 -3.79 16.036)" fill="url(#j)" d="M-10-47h5v7h-5z"/><path fill="url(#k)" d="M10 40h28v7H10z" transform="matrix(1.1579 0 0 .64286 -3.79 16.036)"/></g><rect width="38" height="38" rx="2" ry="2" x="5" y="6" color="#000" fill="url(#l)" overflow="visible"/><rect width="37" height="37" rx="1" ry="1" x="5.5" y="6.5" fill="none" stroke="url(#m)" stroke-linecap="round" stroke-linejoin="round"/><rect width="40" height="1.5" rx="0" ry="0" x="4" y="15" opacity=".15" fill="url(#n)" overflow="visible"/><path d="M4.5 15v27.373c0 1.178.95 2.127 2.127 2.127h34.746c1.178 0 2.127-.95 2.127-2.127V15" opacity=".3" fill="none" stroke="#000"/><path d="M6.627 5.5C5.45 5.5 4.5 6.45 4.5 7.627V14.5h39V7.627c0-1.178-.95-2.127-2.127-2.127z" color="#000" fill="url(#o)" overflow="visible"/><path d="M6.627 5.5C5.45 5.5 4.5 6.45 4.5 7.627V14.5h39V7.627c0-1.178-.95-2.127-2.127-2.127z" opacity=".4" color="#000" fill="none" stroke="#126400" stroke-linecap="round" overflow="visible"/><path d="M38.51 34.5H9.5zm-.02-13.97L9.5 20.507V39.5h29.01zm.02 9.97H9.5m29.01-5H9.5m6.02-4.95l-.04 18.95m5.024-18.868L20.496 39.5m6-18.934l.008 18.934m5.98-19l.03 19" opacity=".2" color="#000" fill="none" stroke="#fff" overflow="visible"/><path d="M39 11a1 1 0 1 1-2 0 1 1 0 1 1 2 0z" opacity=".3" color="#000" fill="#fff" overflow="visible"/><path d="M39 10a1 1 0 1 1-2 0 1 1 0 1 1 2 0z" opacity=".4" color="#000" fill="#126400" overflow="visible"/><path d="M6.5 6.5c-.554 0-1 .446-1 1v6h37v-6c0-.554-.446-1-1-1z" opacity=".5" fill="none" stroke="url(#p)" stroke-linecap="round" stroke-linejoin="round"/><path d="M38.51 33.5H9.5zm-.02-13.97L9.5 19.507V38.5h29.01zm.02 9.97H9.5m29.01-5H9.5m6.02-4.95l-.04 18.95m5.024-18.868L20.496 38.5m6-18.934l.008 18.934m5.98-19l.03 19" opacity=".25" fill="none" stroke="#5e553c"/><path d="M11 11a1 1 0 1 1-2 0 1 1 0 1 1 2 0z" opacity=".3" color="#000" fill="#fff" overflow="visible"/><path d="M11 10a1 1 0 1 1-2 0 1 1 0 1 1 2 0z" opacity=".4" color="#000" fill="#126400" overflow="visible"/></svg>
